Newaita/actions/32/tools-media-optical-copy.svg

<svg height="32" viewBox="0 0 32 32" width="32" xmlns="http://www.w3.org/2000/svg"><g fill="#424242"><path d="m23.816406 18.773438c-2.933594 0-5.292968 2.359374-5.292968 5.292968 0 2.929688 2.359374 5.289063 5.292968 5.289063 2.929688 0 5.289063-2.359375 5.289063-5.289063 0-2.933594-2.359375-5.292968-5.289063-5.292968zm0 1.320312c2.195313 0 3.96875 1.773438 3.96875 3.972656 0 2.199219-1.773437 3.96875-3.96875 3.96875-2.199218 0-3.972656-1.769531-3.972656-3.96875 0-2.199218 1.773438-3.972656 3.972656-3.972656zm0 0"/><path d="m15.875 2.894531c-7.328125 0-13.230469 5.902344-13.230469 13.230469 0 7.332031 5.902344 13.230469 13.230469 13.230469v-2.644531c-5.863281 0-10.582031-4.71875-10.582031-10.585938 0-5.863281 4.71875-10.582031 10.582031-10.582031 5.867188 0 10.585938 4.71875 10.585938 10.582031h2.644531c0-7.328125-5.898438-13.230469-13.230469-13.230469zm0 0"/><path d="m15.875 12.15625c-2.199219 0-3.96875 1.769531-3.96875 3.96875s1.769531 3.96875 3.96875 3.96875v-1.320312c-1.464844 0-2.644531-1.179688-2.644531-2.648438 0-1.464844 1.179687-2.644531 2.644531-2.644531 1.46875 0 2.648438 1.179687 2.648438 2.644531h1.320312c0-2.199219-1.769531-3.96875-3.96875-3.96875zm0 0"/><path d="m15.875 8.1875c-4.394531 0-7.9375 3.542969-7.9375 7.9375h1.324219c0-3.664062 2.949219-6.613281 6.613281-6.613281zm0 0"/><path d="m23.816406 22.082031c-1.101562 0-1.984375.882813-1.984375 1.984375 0 1.097656.882813 1.984375 1.984375 1.984375 1.097656 0 1.984375-.886719 1.984375-1.984375 0-1.101562-.886719-1.984375-1.984375-1.984375zm0 1.320313c.363282 0 .660156.296875.660156.664062 0 .363282-.296874.660156-.660156.660156-.367187 0-.664062-.296874-.664062-.660156 0-.367187.296875-.664062.664062-.664062zm0 0"/></g></svg>

<?xml version="1.0" encoding="UTF-8"?>
<svg xmlns="http://www.w3.org/2000/svg" xmlns:xlink="http://www.w3.org/1999/xlink" width="32px" height="32px" viewBox="0 0 32 32" version="1.1">
<g id="surface1">
<path style=" stroke:none;fill-rule:nonzero;fill:rgb(25.882354%,25.882354%,25.882354%);fill-opacity:1;" d="M 23.816406 18.773438 C 20.882812 18.773438 18.523438 21.132812 18.523438 24.066406 C 18.523438 26.996094 20.882812 29.355469 23.816406 29.355469 C 26.746094 29.355469 29.105469 26.996094 29.105469 24.066406 C 29.105469 21.132812 26.746094 18.773438 23.816406 18.773438 Z M 23.816406 20.09375 C 26.011719 20.09375 27.785156 21.867188 27.785156 24.066406 C 27.785156 26.265625 26.011719 28.035156 23.816406 28.035156 C 21.617188 28.035156 19.84375 26.265625 19.84375 24.066406 C 19.84375 21.867188 21.617188 20.09375 23.816406 20.09375 Z M 23.816406 20.09375 "/>
<path style=" stroke:none;fill-rule:nonzero;fill:rgb(25.882354%,25.882354%,25.882354%);fill-opacity:1;" d="M 15.875 2.894531 C 8.546875 2.894531 2.644531 8.796875 2.644531 16.125 C 2.644531 23.457031 8.546875 29.355469 15.875 29.355469 L 15.875 26.710938 C 10.011719 26.710938 5.292969 21.992188 5.292969 16.125 C 5.292969 10.261719 10.011719 5.542969 15.875 5.542969 C 21.742188 5.542969 26.460938 10.261719 26.460938 16.125 L 29.105469 16.125 C 29.105469 8.796875 23.207031 2.894531 15.875 2.894531 Z M 15.875 2.894531 "/>
<path style=" stroke:none;fill-rule:nonzero;fill:rgb(25.882354%,25.882354%,25.882354%);fill-opacity:1;" d="M 15.875 12.15625 C 13.675781 12.15625 11.90625 13.925781 11.90625 16.125 C 11.90625 18.324219 13.675781 20.09375 15.875 20.09375 L 15.875 18.773438 C 14.410156 18.773438 13.230469 17.59375 13.230469 16.125 C 13.230469 14.660156 14.410156 13.480469 15.875 13.480469 C 17.34375 13.480469 18.523438 14.660156 18.523438 16.125 L 19.84375 16.125 C 19.84375 13.925781 18.074219 12.15625 15.875 12.15625 Z M 15.875 12.15625 "/>
<path style=" stroke:none;fill-rule:nonzero;fill:rgb(25.882354%,25.882354%,25.882354%);fill-opacity:1;" d="M 15.875 8.1875 C 11.480469 8.1875 7.9375 11.730469 7.9375 16.125 L 9.261719 16.125 C 9.261719 12.460938 12.210938 9.511719 15.875 9.511719 Z M 15.875 8.1875 "/>
<path style=" stroke:none;fill-rule:nonzero;fill:rgb(25.882354%,25.882354%,25.882354%);fill-opacity:1;" d="M 23.816406 22.082031 C 22.714844 22.082031 21.832031 22.964844 21.832031 24.066406 C 21.832031 25.164062 22.714844 26.050781 23.816406 26.050781 C 24.914062 26.050781 25.800781 25.164062 25.800781 24.066406 C 25.800781 22.964844 24.914062 22.082031 23.816406 22.082031 Z M 23.816406 23.402344 C 24.179688 23.402344 24.476562 23.699219 24.476562 24.066406 C 24.476562 24.429688 24.179688 24.726562 23.816406 24.726562 C 23.449219 24.726562 23.152344 24.429688 23.152344 24.066406 C 23.152344 23.699219 23.449219 23.402344 23.816406 23.402344 Z M 23.816406 23.402344 "/>
</g>
</svg>
